X: 8
T:Where Are You Going
M:3/4
L:1/4
Q:110
C:Words and music by Catherine Faber, (c) 1990
S:From "A Breeze Through the CONduit"
A:Filk
B:A Breeze Through the CONduit, (c) 1992 by Julia West
D:on the tape, "A Breeze Through the CONduit"
W:Where are you going, steel-wearer, prince-rider
W:What are you knowing, cool-carer, bane bider
W:Your brother at hand and a sword by your side,
W:Through this blasted land, tell me, where do you ride
K:G
B B B|B<A G|A A A|A F2|G G G|G<F E|F F F|F _E E|E<E E|D E F|G G A|B2 B|
B B B A A F|G G<F|E3||
